img/arrow-2.svg

<svg width="3" height="51" viewBox="0 0 3 51" fill="none" xmlns="http://www.w3.org/2000/svg">
<g opacity="0.5">
<path d="M2.10803 0C2.54721 2.15769 2.81074 4.21731 2.89858 6.375C2.98641 8.53269 3.07425 10.5923 2.89858 12.75C2.7229 14.9077 2.2837 16.9673 2.10803 19.125C2.02019 21.2827 2.10804 23.3423 2.28371 25.5C2.54722 27.6577 2.72289 29.7173 2.72289 31.875C2.81073 34.0327 2.8986 36.0923 2.81076 38.25C2.63509 42.4673 2.28371 46.7827 1.40535 51H1.14186C0.351333 46.7827 0.087836 42.4673 0 38.25C0 36.0923 0.0878252 34.0327 0.263497 31.875C0.351333 29.7173 0.614852 27.6577 0.878359 25.5C1.14187 23.3423 1.31751 21.2827 1.22967 19.125C1.14184 16.9673 0.790534 14.9077 0.614862 12.75C0.43919 10.5923 0.614819 8.53269 0.790491 6.375C0.966163 4.21731 1.2297 2.15769 1.75672 0H2.10803Z" fill="#877672"/>
</g>
</svg>

<svg xmlns="http://www.w3.org/2000/svg" width="3" height="51" fill="none"  xmlns:v="https://vecta.io/nano"><path d="M2.108 0c.439 2.158.703 4.217.791 6.375v6.375l-.791 6.375c-.088 2.158 0 4.217.176 6.375.264 2.158.439 4.217.439 6.375l.088 6.375c-.176 4.217-.527 8.533-1.405 12.75h-.263C.351 46.783.088 42.467 0 38.25c0-2.158.088-4.217.263-6.375.088-2.158.351-4.217.615-6.375s.439-4.217.351-6.375-.439-4.217-.615-6.375 0-4.217.176-6.375S1.23 2.158 1.757 0h.351z" fill="#877672" opacity=".5"/></svg>
